X:1
T:Nasce la pena mia
T:Nasce la pena mia
T:Jean de Castro
T:Source : Chansons, madrigaux et motetz à 3 parties---Anvers---P.Phalèse---1582. Editor : André Vierendeels (03/02/16).
T:Notes : Original clefs : C1, C3, C4 Editorial accidentals above the staff
T:©
T:©
T:©
T:©
T:©
T:©
T:©
T:©
C:Jean de Castro
Z:©
%%score [ 1 2 3 ]
L:1/8
Q:1/4=120
M:2/2
K:C
V:1 treble nm="Superius" snm="S"
V:2 treble nm="Alto" snm="A"
V:3 treble-8 nm="Tenor" snm="T"
V:1
 D6 D2 | D4 F4- | F2 G2 A4 | A8 | z4 A4- | A2 A2 A4 | c6 d2 | e4 c4 | z4 c4 | B4 A4 | B8 | A8 | %12
w: Na- sce|la pe-|* na mi-|a,|na-|* sce la|pe- na|mi- a,|la|pe- na|mi-|a,|
 z4 A4- | A2 A2 A4 | A4 G4 | G4 z2 A2 | F2 G2 E4 | D4 A4 | c2 c2 B4 | ^c8 | z8 | A4 A2 A2 | %22
w: non|_ po- ten-|do mi-|rar, mi-|o vi- vo|so- le,|vi- vo so-|le,||e la mia|
 G2 F2 E4 | D4 z2 A2 | A2 A2 G2 c2 | B4 A4 | z2 E2 E2 E2 | D2 D2 F4 | E4 A4 | z4 c4- | c4 B4- | %31
w: vi- t'e ri-|a, e|la mia vi- t'e|ri- a,|e la mia|vi- t'e ri-|a qual,|qual|_ hor|
 B2 A2 A4- | A4 ^G4 | A8 | z4 A4 | G8 | F4 E4 | D8 | z4 d4 | B4 c4- | c4 B2 A2 | B4 B4 | A8 | B8 | %44
w: _ lo mi-||ro,|qual|hor|lo mi-|ro|per|ch'il sguar-||d'e ta-||le,|
 G6 G2 | c4 A4 | B4 G4 | c8 | B4 A4 | B8 | ^c8 | z8 | A8- | A8 |: G8- | G4 G4 | E4 A4 | A2 G2 G4- | %58
w: che la-|sciar- mi|peg- gior|che|mor- te|suo-|le.||Ahi|_|vi-|* ta|tri- st'e|fra- * *|
 G4 ^F4 | G4 z2 G2 | G4 G4 | E4 ^F4 | G8 | z4 c4 | c4 c4 | A4 B4 | c8 | z4 c4- | c4 B4- | %69
w: |le, che|fia dun-|que di|me,|che|fia dun-|que di|me,|che|_ far|
 B2 A2 A4- | A4 G4 | A8 | z2 E2 E3 F | G4 G4 | z2 D2 F3 F | E4 E2 A2 | A2 c2 B4 | c2 A2 G2 F2 | %78
w: _ mi deg-||gio,|s'io mir' ho|ma- le|s'io mir' ho|ma- le, s'io|mir' ho ma-|le, e s'io non|
 E2 D2 E4 | ^F6 G2 | A8 | z8 |1 A8 :|2 E2 D2 ^C4 || D8- | D8- | D8- | D8- | D8 |] %89
w: mir' ho peg-||gio,|||mir' ho peg-|gio.|_||||
V:2
 z8 | A,6 A,2 | A,4 D4- | D4 F4 | F8 | E8- | E8 | z4 E4- | E2 E2 E4 | ^G4 A4- |"^#" A4 G4 | %11
w: |Na- sce|la pe-|* na|mi-|a,|_|na-|* sce la|pe- na|_ mi|
 A4 F4- | F2 F2 F4 | E4 D4 |"^-natural" C4 z2 E2 | D2 D2 F2 E2 |"^#" z2 D2 D2 C2 | F4 D2 ^F2 | %18
w: a, non|_ po- ten-|do mi-|rar, mio|vi- vo so- le,|mio vi- vo|so- le, mio|
 G2 A4 ^G2 | A2 E2 E2 E2 | C4 B,4 | A,3 B, C3 D | E2 D4 ^C2 | D2 F2 F2 F2 | E2 C2 E4 | D2 D4 C2- | %26
w: vi- vo so-|le, e la mia|vi- t'e|ri- * * *||a, e la mia|vi- t'e ri-|a, e la|
 C2 C2 B,2 G,2 | B,4 A,4 | z4 F4 | E8 | A,4 B,4 | C6 B,A, | B,8 | A,4 F4- | F4 E4- | E4 D4- | %36
w: _ mia vi- t'e|ri- a,|qual|hor|lo mi-|||ro, qual|_ hor|_ lo|
 D4 ^C4 | D4 A4- | A4 ^F4 | G4 A4- | A4 D4- | D2 EF G4- | G4 ^F4 | G4 G4- | G2 G2 E4 | A4 ^F4 | %46
w: _ mi-|ro per|_ ch'il|sguar- d'e|_ ta-|||le, che|_ la- scar-|mi peg-|
 G4 E4- | E4 F4 | G4 A4- | A4 ^G4 | A8 | z4 F4- | F4 E4- | E4 F4 |: D4 E4 | D8 | C4 C4- | C4 B,4 | %58
w: gior che|_ che|mor- te|_ suo-|le.|Ahi|_ vi-|* ta|tri- st'e|fra-|le, tri-|* st'e|
 A,8 | G,4 z2 D2 | E4 D4 | ^C2 C2 D4 | z2 D2 E4- | E4 F4 | E8 | F4 G4- | G2 F2 E2 D2 | E8 | z4 D4 | %69
w: fra-|le, che|fia dun-|que di me,|che fia|_ dun-|que|di me,|_ _ _ _|me,|che|
 C4 D4 | B,8 | A,2 C2 C3 D | E2 A,2 z2 E2 | E3 F G2 E2 | z2 B,2 D3 D | C4 C2 F2 | E2 A2 ^G4 | %77
w: far mi|deg-|gio, s'io mir' ho|ma- le, s'io|mir' ho ma- le,|s'io mir' ho|ma- le, s'io|mir' ho ma-|
 A2 F2 E2 D2 | ^C2 D4 C2 | D8 | z4 d4- | d4 c4- |1 c4 d4 :|2 ^C2 D2 E4 || F8 | z2 D2 _B,4- | %86
w: me, e s'io non|mir' ho peg-|gio,|ahi|_ vi-|* ta|mir' ho peg-|gio,|e s'io|
 B,4 A,4 | _B,2 A,2 B,4 | A,8 |] %89
w: _ mir'|ho peg- *|gio.|
V:3
 z4 D4- | D2 D2 D4 | F4 D4 | d8- | d8 | A8 | z4 A4- | A2 A2 A4 | c6 d2 | e4 f4 | e8 | A4 d4- | %12
w: Na-|* sce la|pe- na|mi-||a,|na-|* sce la|pe- na|mi- *||a, non|
 d2 d2 d4 | ^c4 d4 | A2 A2 c2 c2 | G4 d2 A2 | _B2 G2 A4 | D4 z2 d2 | c2 A2 e4 | A4 z2 A2 | %20
w: _ po- ten-|do mi-|rar, mio vi- vo|so- le, mio|vi- vo so-|le, mio|vi- vo so-|le, e|
 A2 A2 G2 E2 | F3 G A3 B | c2 d2 A4 | D2 d2 d2 d2 | A2 A2 c4 | G4 z2 A2 | A2 A2 E2 E2 | G4 D4 | %28
w: la mia vi- t'e|ri- * * *||a, e la mia|vi- t'e ri-|a, e|la mia vi- t'e|ri- a,|
 z4 d4 | c4 A4- | A4 ^G4 | A6 GF | E8 | z4 d4- | d4 c4- | c4 B4 | A8 | D8- | D8 | z4 A4 | F4 G4- | %41
w: qual|hor lo|_ mi-||ro,|qual|_ hor|_ lo|mi-|ro|_|per|ch'il sguar-|
 G4 G4 | d8 | G8 | c6 c2 | A4 d4 | G4 c4- | c4 A4 | e4 f4 | e8 | A8 | d8- | d4 A4- | A4 d4 |: %54
w: * d'e|ta-|le,|che la-|sciar- mi|peg- gior|_ che|mor- te|suo-|le.|Ahi|_ vi-|* ta|
 B4 c4 | G8 | A4 F4- | F4 G4 | D8 | G4 G4 | c4 G4 | A4 D4 | G4 z2 c2 | c4 F4 | A8- | A4 G4 | c8 | %67
w: tri- st'e|fra-|le, tri-|* st'e|fra-|le, che|fia dun-|que di|me, che|fia dun-|que|_ di|me,|
 C8 | G8 | A4 D4 | E8 | z2 A2 A3 B | c4 A4 | z2 E2 E3 F | G4 D4 | z2 A2 A2 D2 | A4 E4 | %77
w: che|far|mi deg-|gio,|s'io mir' ho|ma- le,|s'io mir' ho|ma- le,|s'io mir' ho|ma- le,|
 z2 F2 c2 d2 | A2 _B2 A4 | D8 | z4 d4- | d4 A4- |1 A4 d4 :|2 A2 _B2 A4 || D4 d4 | _B4 G4 | %86
w: e s'io non|mir' ho peg-|gio,|ahi|_ vi-|* ta|mir' ho peg-|gio, e|s'io non|
 z2 G2 D2 D2 | G2 ^F2 G4 | D8 |] %89
w: e s'io non|ho peg- *|gio.|

